X: 17697
T: Holtwood
R: reel
M: 4/4
K: Amajor
a2gf e2e2|f2ed cdec|d2cB cdec|dcBd cBA2|
a2gf e2e2|f2ed cdec|d2cB cdec|d2B2A4:|
B2BB B2B2|ABcA B4|BABc dcde|fedc dcBA|
[1 B2BBB2B2|ABcAB4|BABc dcde|fedc Beee:|
[2 B2BBB2B2|ABcAB2A2|a2g2 f2e2|d2c2 B2A2||

